X: 4843
T: Bracken's
R: jig
M: 6/8
K: Aminor
|:E|AEA cAc|eae cBA|GDG BGB|dge dB^G|
AEA cAc|egc' gec|def ede|cAA A2:|
|:B|cBA ECE|A,CE ABc|BAB GBd|gdB GAB|
cBc dcd|egc' gec|def ede|cAA A2:|

